X:1
T:Mahler No.2
T:Mahler No.2 
T:Tuba
T:Gustav Mahler
C:Gustav Mahler
L:1/8
Q:1/4=80
M:4/4
K:Db
V:1 bass nm="Tuba" snm="Tba."
V:1
!pp! !tenuto!D,,4 !tenuto!F,,4 | !tenuto!D,,4 !tenuto!B,,4 | %2
 !tenuto!E,,4 !tenuto!B,,,2 !tenuto!_C,,2 |!>(! D,,4 !breath!G,,,4!>)! | %4
 !tenuto!=E,,4 !tenuto!B,,4 | !tenuto!A,,4 !tenuto!F,,4 | %6
 !tenuto!C,,2 !tenuto!A,,,2 !tenuto!E,,2 !tenuto!D,,2 | C,,6 z2 |!p! !tenuto!F,,4 !tenuto!C,,4 | %9
 F,,4 z4 | !tenuto!A,,2 !tenuto!=G,,2 !tenuto!F,,4 | !tenuto!E,,4 z4 | A,,4 E,,4 | %13
!<(! C,,2 B,,,2 A,,,2 F,,,2!<)! |!f! B,,,4 G,,,4 | _C,,4 =G,,,4 |!<(! =D,,2 E,,2 F,,2 ^F,,2!<)! | %17
!p!!f!!ff!!<(! =G,,8-!<)! |!ff!!<(!!>(! (G,,8!<)!!>)! |[K:C]!p! C,2) z2 z4 | z8 | %21
!ff!!>(! C,,8-!>)! | C,,4 z4 | z8 | C,,6 z2 | z4 G,,,4 | C,,6 z2 | z8 | C,,6 z2 | z8 | C,8- | %31
 C,4 z4 |!ff! C,,4 z4 | z8 |!ff! C,,4 z4 | z8 | z8 | !fermata!z8 |!mf! C,,4 _E,,4 | C,,4 _E,,4 | %40
!mf! C,,4 _B,,,4 |!p! C,,4!>(! _B,,,4!>)! | C,,8- |!pp! C,,8 | z8 |[K:F] _A,,4 G,,4 | _A,,4 _E,,4 | %47
 z8 | z8 |!ff!!>(! ^C,,8-!>)! | C,,8 |!<(! ^C,,8-!<)! | C,,8 |[K:Ab] z8 | z8 | z8 | z8 | z8 | z8 | %59
 z8 | z8 |!f! F,,4 C,,4 | F,,4 z4 | D,4 _G,,4 | D,4 z4 | %65
!ff! B,,!p! z/ =A,,/ G,, z/ F,,/ E,, z/ =D,,/ C,, z/ B,,,/ | %66
 =D, z/ C,/ B,, z/ =A,,/ G,, z/ F,,/ G,, z/ A,,/ | B,, z z2 z4 | z8 | %69
 =D,, z/ F,,/ B,, z/ =A,,/ G,, z/ F,,/ E,, z/ D,,/ | %70
 E,, z/ B,,/ E, z/ =D,/ C, z/ B,,/ A,, z/ _G,,/ | F,, z z2 z4 | z8 |!f! E,,2 _G,,2 _C,,2 _F,,2 | %74
!fff! F,,,8- | F,,,8 | F,,,8- | F,,,8 | F,,,8- | F,,,8- | F,,,8- | F,,,8 | F,,,8- | F,,,8- | %84
 F,,,8 | F,,,8- | F,,,8 | z8 | !fermata!z8 |[M:2/2][Q:1/2=90]"^\n"!ff! z4 z2 =B,,,C,, | %90
 D,,4- D,,C,,=B,,,C,, | A,,,2 F,,,2 z2 =B,,,C,, | (D,,3 C,,) =B,,,C,,F,,A,, | C,4- C,A,,B,,C, | %94
 D,2 z2 z4 | z4 z2 A,,2 | D,4- D,C,B,,C, | D,2 G,,2 z2 G,,2 | D,4- D,C,B,,C, | ^C,2 =D,2 z2 C,D, | %100
 ^D,2 =E,2 z2 A,,D, | ^D,2 =E,2 z2 G,,E, | F,4- F,=E,=D,E, | F,2 C,2 z2 =E,F, | %104
[Q:1/2=104]"^\n" _G,4- G,F,=E,F, | ._G,2 .C,2 z2 .G,2 | .C,2 z2 ._G,2 .C,2 | z2 ._G,2 .C,2 z2 | %108
!fff! !^!_G,4 .C,2 z2 | !^!_G,4 .C,2 z2 | _G,8- | (3:2:2G,4 .F,2 (3.=E,2 ._E,2 .=D,2 | %112
 .^C,2 .^C,,2 z4 | z8 |!ff! ^C,,8- | C,,8- | C,,8- | C,,8- | C,,8- | C,,8- | C,,8- | C,,8 | z8 |] %123

